Faba/24x24/actions/edit-undo.svg

<?xml version="1.0" encoding="UTF-8" standalone="no"?>
<!-- Created with Inkscape (http://www.inkscape.org/) -->

<svg
   xmlns:dc="http://purl.org/dc/elements/1.1/"
   xmlns:cc="http://creativecommons.org/ns#"
   xmlns:rdf="http://www.w3.org/1999/02/22-rdf-syntax-ns#"
   xmlns:svg="http://www.w3.org/2000/svg"
   xmlns="http://www.w3.org/2000/svg"
   xmlns:xlink="http://www.w3.org/1999/xlink"
   xmlns:sodipodi="http://sodipodi.sourceforge.net/DTD/sodipodi-0.dtd"
   xmlns:inkscape="http://www.inkscape.org/namespaces/inkscape"
   width="24"
   height="24"
   id="svg3495"
   version="1.1"
   inkscape:version="0.48.4 r9939"
   sodipodi:docname="edit-undo.svg">
  <defs
     id="defs3497">
    <clipPath
       clipPathUnits="userSpaceOnUse"
       id="clipPath3669">
      <path
         inkscape:connector-curvature="0"
         d="M 0,96 96,96 96,0 0,0 0,96 z"
         id="path3671" />
    </clipPath>
    <linearGradient
       inkscape:collect="always"
       xlink:href="#linearGradient3821"
       id="linearGradient3827"
       x1="8"
       y1="16"
       x2="8"
       y2="0"
       gradientUnits="userSpaceOnUse" />
    <linearGradient
       id="linearGradient3821">
      <stop
         style="stop-color:#555555;stop-opacity:1;"
         offset="0"
         id="stop3823" />
      <stop
         style="stop-color:#666666;stop-opacity:1;"
         offset="1"
         id="stop3825" />
    </linearGradient>
    <linearGradient
       gradientTransform="translate(14.052433,27.326995)"
       y2="0"
       x2="8"
       y1="16"
       x1="8"
       gradientUnits="userSpaceOnUse"
       id="linearGradient3056"
       xlink:href="#linearGradient3821"
       inkscape:collect="always" />
    <linearGradient
       inkscape:collect="always"
       xlink:href="#linearGradient3821"
       id="linearGradient3793"
       x1="12"
       y1="22"
       x2="12"
       y2="-2"
       gradientUnits="userSpaceOnUse"
       gradientTransform="translate(1,25)" />
  </defs>
  <sodipodi:namedview
     id="base"
     pagecolor="#ffffff"
     bordercolor="#666666"
     borderopacity="1.0"
     inkscape:pageopacity="0.0"
     inkscape:pageshadow="2"
     inkscape:zoom="1"
     inkscape:cx="17.473964"
     inkscape:cy="16.819655"
     inkscape:current-layer="layer1"
     showgrid="false"
     inkscape:grid-bbox="true"
     inkscape:document-units="px"
     inkscape:window-width="1364"
     inkscape:window-height="700"
     inkscape:window-x="0"
     inkscape:window-y="28"
     inkscape:window-maximized="1"
     inkscape:snap-bbox="true"
     inkscape:bbox-paths="true"
     inkscape:bbox-nodes="true"
     inkscape:snap-bbox-edge-midpoints="false">
    <inkscape:grid
       type="xygrid"
       id="grid3512"
       empspacing="4"
       visible="true"
       enabled="true"
       snapvisiblegridlinesonly="true"
       dotted="false" />
  </sodipodi:namedview>
  <metadata
     id="metadata3500">
    <rdf:RDF>
      <cc:Work
         rdf:about="">
        <dc:format>image/svg+xml</dc:format>
        <dc:type
           rdf:resource="http://purl.org/dc/dcmitype/StillImage" />
        <dc:title />
      </cc:Work>
    </rdf:RDF>
  </metadata>
  <g
     id="layer1"
     inkscape:label="Background"
     inkscape:groupmode="layer"
     transform="translate(0,-24)">
    <path
       style="font-size:medium;font-style:normal;font-variant:normal;font-weight:normal;font-stretch:normal;text-indent:0;text-align:start;text-decoration:none;line-height:normal;letter-spacing:normal;word-spacing:normal;text-transform:none;direction:ltr;block-progression:tb;writing-mode:lr-tb;text-anchor:start;baseline-shift:baseline;color:#bebebe;fill:url(#linearGradient3793);fill-opacity:1;stroke:none;stroke-width:1;marker:none;visibility:visible;display:inline;overflow:visible;enable-background:accumulate;font-family:Sans;-inkscape-font-specification:Sans"
       d="m 9.53125,26.53125 -0.75,0.4375 L 2.75,30.5625 2.03125,31 2.75,31.4375 l 6.03125,3.625 0.75,0.4375 0,-0.875 0,-2.125 4.5,0 c 2.515154,0 4.5,1.984846 4.5,4.5 0,2.515154 -1.984846,4.5 -4.5,4.5 l -7,0 -0.5,0 0,0.5 0,2 0,0.5 0.5,0 7,0 c 4.128557,0 7.5,-3.371443 7.5,-7.5 0,-4.128557 -3.371443,-7.5 -7.5,-7.5 l -4.5,0 0,-2.09375 0,-0.875 z"
       id="path2987"
       inkscape:connector-curvature="0" />
    <path
       style="font-style:normal;font-variant:normal;font-weight:normal;font-stretch:normal;text-indent:0;text-align:start;text-decoration:none;line-height:normal;letter-spacing:normal;word-spacing:normal;text-transform:none;direction:ltr;block-progression:tb;writing-mode:lr-tb;text-anchor:start;baseline-shift:baseline;opacity:0.2;color:#bebebe;fill:#ffffff;fill-opacity:1;stroke:none;stroke-width:2;marker:none;visibility:visible;display:inline;overflow:visible;enable-background:accumulate;font-family:Sans;-inkscape-font-specification:Sans"
       d="M 9.03125,27.40625 3,31 l 0.84375,0.5 5.1875,-3.09375 0,-1 z m 0,2.59375 0,0.5 0,0.5 0.5,0 4.5,0 c 3.689087,0 6.711515,2.874734 6.96875,6.5 0.0117,-0.164927 0.03125,-0.33217 0.03125,-0.5 0,-3.856917 -3.143083,-7 -7,-7 l -4.5,0 -0.5,0 z M 19,37.5 C 18.74604,40.035334 16.638534,42 14.03125,42 l -7,0 0,1 7,0 c 2.781103,0 5,-2.218897 5,-5 0,-0.173819 -0.01432,-0.330978 -0.03125,-0.5 z"
       id="path4400"
       inkscape:connector-curvature="0" />
    <path
       id="path3764"
       d="m 9.53125,26.53125 -0.75,0.4375 L 2.75,30.5625 2.03125,31 2.75,31.4375 l 6.03125,3.625 0.75,0.4375 0,-0.875 0,-2.125 4.5,0 c 2.515154,0 4.5,1.984846 4.5,4.5 0,2.515154 -1.984846,4.5 -4.5,4.5 l -7,0 -0.5,0 0,0.5 0,2 0,0.5 0.5,0 7,0 c 4.128557,0 7.5,-3.371443 7.5,-7.5 0,-4.128557 -3.371443,-7.5 -7.5,-7.5 l -4.5,0 0,-2.09375 0,-0.875 z"
       style="font-size:medium;font-style:normal;font-variant:normal;font-weight:normal;font-stretch:normal;text-indent:0;text-align:start;text-decoration:none;line-height:normal;letter-spacing:normal;word-spacing:normal;text-transform:none;direction:ltr;block-progression:tb;writing-mode:lr-tb;text-anchor:start;baseline-shift:baseline;opacity:0.61000001;color:#bebebe;fill:none;stroke:#000000;stroke-width:1;stroke-opacity:1;marker:none;visibility:visible;display:inline;overflow:visible;enable-background:accumulate;font-family:Sans;-inkscape-font-specification:Sans"
       inkscape:connector-curvature="0" />
  </g>
</svg>

<?xml version="1.0" encoding="UTF-8" standalone="no"?>
<!-- Created with Inkscape (http://www.inkscape.org/) -->

<svg
   xmlns:dc="http://purl.org/dc/elements/1.1/"
   xmlns:cc="http://creativecommons.org/ns#"
   xmlns:rdf="http://www.w3.org/1999/02/22-rdf-syntax-ns#"
   xmlns:svg="http://www.w3.org/2000/svg"
   xmlns="http://www.w3.org/2000/svg"
   xmlns:xlink="http://www.w3.org/1999/xlink"
   xmlns:sodipodi="http://sodipodi.sourceforge.net/DTD/sodipodi-0.dtd"
   xmlns:inkscape="http://www.inkscape.org/namespaces/inkscape"
   width="24"
   height="24"
   id="svg3495"
   version="1.1"
   inkscape:version="0.48.4 r9939"
   sodipodi:docname="edit-redo.svg">
  <defs
     id="defs3497">
    <clipPath
       clipPathUnits="userSpaceOnUse"
       id="clipPath3669">
      <path
         inkscape:connector-curvature="0"
         d="M 0,96 96,96 96,0 0,0 0,96 z"
         id="path3671" />
    </clipPath>
    <linearGradient
       inkscape:collect="always"
       xlink:href="#linearGradient3821"
       id="linearGradient3827"
       x1="8"
       y1="16"
       x2="8"
       y2="0"
       gradientUnits="userSpaceOnUse" />
    <linearGradient
       id="linearGradient3821">
      <stop
         style="stop-color:#555555;stop-opacity:1;"
         offset="0"
         id="stop3823" />
      <stop
         style="stop-color:#666666;stop-opacity:1;"
         offset="1"
         id="stop3825" />
    </linearGradient>
    <linearGradient
       inkscape:collect="always"
       xlink:href="#linearGradient3821"
       id="linearGradient3793"
       x1="12"
       y1="22"
       x2="12"
       y2="-2"
       gradientUnits="userSpaceOnUse"
       gradientTransform="translate(0,24)" />
  </defs>
  <sodipodi:namedview
     id="base"
     pagecolor="#ffffff"
     bordercolor="#666666"
     borderopacity="1.0"
     inkscape:pageopacity="0.0"
     inkscape:pageshadow="2"
     inkscape:zoom="1"
     inkscape:cx="13.107909"
     inkscape:cy="4.8997852"
     inkscape:current-layer="layer1"
     showgrid="false"
     inkscape:grid-bbox="true"
     inkscape:document-units="px"
     inkscape:window-width="1364"
     inkscape:window-height="700"
     inkscape:window-x="0"
     inkscape:window-y="28"
     inkscape:window-maximized="1"
     inkscape:snap-bbox="true"
     inkscape:bbox-paths="true"
     inkscape:bbox-nodes="true"
     inkscape:snap-bbox-edge-midpoints="false">
    <inkscape:grid
       type="xygrid"
       id="grid3512"
       empspacing="4"
       visible="true"
       enabled="true"
       snapvisiblegridlinesonly="true"
       dotted="false" />
  </sodipodi:namedview>
  <metadata
     id="metadata3500">
    <rdf:RDF>
      <cc:Work
         rdf:about="">
        <dc:format>image/svg+xml</dc:format>
        <dc:type
           rdf:resource="http://purl.org/dc/dcmitype/StillImage" />
        <dc:title></dc:title>
      </cc:Work>
    </rdf:RDF>
  </metadata>
  <g
     id="layer1"
     inkscape:label="Background"
     inkscape:groupmode="layer"
     transform="translate(0,-24)">
    <path
       style="font-size:medium;font-style:normal;font-variant:normal;font-weight:normal;font-stretch:normal;text-indent:0;text-align:start;text-decoration:none;line-height:normal;letter-spacing:normal;word-spacing:normal;text-transform:none;direction:ltr;block-progression:tb;writing-mode:lr-tb;text-anchor:start;baseline-shift:baseline;color:#bebebe;fill:url(#linearGradient3793);fill-opacity:1;stroke:none;stroke-width:1;marker:none;visibility:visible;display:inline;overflow:visible;enable-background:accumulate;font-family:Sans;-inkscape-font-specification:Sans"
       d="M 9.5,26.53125 8.75,26.96875 2.71875,30.5625 2,31 2.71875,31.4375 8.75,35.0625 9.5,35.5 l 0,-0.875 0,-2.125 4.5,0 c 2.515154,0 4.5,1.984846 4.5,4.5 0,2.515154 -1.984846,4.5 -4.5,4.5 l -7,0 -0.5,0 0,0.5 0,2 0,0.5 0.5,0 7,0 c 4.128557,0 7.5,-3.371443 7.5,-7.5 0,-4.128557 -3.371443,-7.5 -7.5,-7.5 l -4.5,0 0,-2.09375 0,-0.875 z"
       id="path2987"
       inkscape:connector-curvature="0" />
    <path
       style="font-style:normal;font-variant:normal;font-weight:normal;font-stretch:normal;text-indent:0;text-align:start;text-decoration:none;line-height:normal;letter-spacing:normal;word-spacing:normal;text-transform:none;direction:ltr;block-progression:tb;writing-mode:lr-tb;text-anchor:start;baseline-shift:baseline;opacity:0.4;color:#bebebe;fill:#ffffff;fill-opacity:1;stroke:none;stroke-width:2;marker:none;visibility:visible;display:inline;overflow:visible;enable-background:accumulate;font-family:Sans;-inkscape-font-specification:Sans"
       d="M 9,27.40625 2.96875,31 3.8125,31.5 9,28.40625 l 0,-1 z M 9,30 9,30.5 9,31 9.5,31 14,31 c 3.689087,0 6.711515,2.874734 6.96875,6.5 C 20.980453,37.335073 21,37.16783 21,37 21,33.143083 17.856917,30 14,30 L 9.5,30 9,30 z m 9.96875,7.5 C 18.71479,40.035334 16.607284,42 14,42 l -7,0 0,1 7,0 c 2.781103,0 5,-2.218897 5,-5 0,-0.173819 -0.01432,-0.330978 -0.03125,-0.5 z"
       id="path4400"
       inkscape:connector-curvature="0" />
    <path
       id="path3764"
       d="M 9.5,26.53125 8.75,26.96875 2.71875,30.5625 2,31 2.71875,31.4375 8.75,35.0625 9.5,35.5 l 0,-0.875 0,-2.125 4.5,0 c 2.515154,0 4.5,1.984846 4.5,4.5 0,2.515154 -1.984846,4.5 -4.5,4.5 l -7,0 -0.5,0 0,0.5 0,2 0,0.5 0.5,0 7,0 c 4.128557,0 7.5,-3.371443 7.5,-7.5 0,-4.128557 -3.371443,-7.5 -7.5,-7.5 l -4.5,0 0,-2.09375 0,-0.875 z"
       style="font-size:medium;font-style:normal;font-variant:normal;font-weight:normal;font-stretch:normal;text-indent:0;text-align:start;text-decoration:none;line-height:normal;letter-spacing:normal;word-spacing:normal;text-transform:none;direction:ltr;block-progression:tb;writing-mode:lr-tb;text-anchor:start;baseline-shift:baseline;opacity:0.61000001;color:#bebebe;fill:none;stroke:#000000;stroke-width:1;stroke-opacity:1;marker:none;visibility:visible;display:inline;overflow:visible;enable-background:accumulate;font-family:Sans;-inkscape-font-specification:Sans"
       inkscape:connector-curvature="0" />
  </g>
</svg>
